X:620
T:Stool of Repentance, The
S:Countless sessions
Z:Nigel Gatherer
M:6/8
L:1/8
K:A
e |: a2e c2e | agf edc | aff f2e | fag f2e  |
     a2e c2e | agf edc | d2e f2e | fac B2A :|
     cAA eAA | cAA edc | dBB fBB | dBB fed  |
     cAA eAA | cAA edc | d2e f2e | fac B2A :|]
<end>
<start>
